svgs/light/seal.svg

<svg xmlns="http://www.w3.org/2000/svg" viewBox="0 0 512 512"><!--! Font Awesome Pro 6.1.1 by @fontawesome - https://fontawesome.com License - https://fontawesome.com/license (Commercial License) Copyright 2022 Fonticons, Inc. --><path d="M199.1 86.63C193.1 92.63 184.1 96 176.5 96H112C103.2 96 96 103.2 96 112V176.5C96 184.1 92.63 193.1 86.63 199.1L41.04 244.7C34.79 250.9 34.79 261.1 41.04 267.3L18.41 289.9C-.3328 271.2-.3328 240.8 18.41 222.1L64 176.5V112C64 85.49 85.49 64 112 64H176.5L222.1 18.41C240.8-.3309 271.2-.3309 289.9 18.41L335.5 64H400C426.5 64 448 85.49 448 112V176.5L493.6 222.1C512.3 240.8 512.3 271.2 493.6 289.9L448 335.5V400C448 426.5 426.5 448 400 448H335.5L289.9 493.6C271.2 512.3 240.8 512.3 222.1 493.6L176.5 448H112C85.49 448 64 426.5 64 400V335.5L18.41 289.9L41.04 267.3L86.63 312.9C92.63 318.9 96 327 96 335.5V400C96 408.8 103.2 416 112 416H176.5C184.1 416 193.1 419.4 199.1 425.4L244.7 470.1C250.9 477.2 261.1 477.2 267.3 470.1L312.9 425.4C318.9 419.4 327 416 335.5 416H400C408.8 416 416 408.8 416 400V335.5C416 327 419.4 318.9 425.4 312.9L470.1 267.3C477.2 261.1 477.2 250.9 470.1 244.7L425.4 199.1C419.4 193.1 416 184.1 416 176.5V112C416 103.2 408.8 96 400 96H335.5C327 96 318.9 92.63 312.9 86.63L267.3 41.04C261.1 34.79 250.9 34.79 244.7 41.04L199.1 86.63z"/></svg>

<svg xmlns="http://www.w3.org/2000/svg" viewBox="0 0 512 512"><!--! Font Awesome Pro 6.4.2 by @fontawesome - https://fontawesome.com License - https://fontawesome.com/license (Commercial License) Copyright 2023 Fonticons, Inc. --><path d="M199.1 86.6c-6 6-14.1 9.4-22.6 9.4H112c-8.8 0-16 7.2-16 16v64.5c0 8.5-3.4 16.6-9.4 22.6L41 244.7c-6.2 6.2-6.2 16.4 0 22.6L18.4 289.9c-18.7-18.7-18.7-49.1 0-67.9L64 176.5V112c0-26.5 21.5-48 48-48h64.5l45.6-45.6c18.7-18.7 49.1-18.7 67.9 0L335.5 64H400c26.5 0 48 21.5 48 48v64.5l45.6 45.6c18.7 18.7 18.7 49.1 0 67.9L448 335.5V400c0 26.5-21.5 48-48 48H335.5l-45.6 45.6c-18.7 18.7-49.1 18.7-67.9 0L176.5 448H112c-26.5 0-48-21.5-48-48V335.5L18.4 289.9 41 267.3l45.6 45.6c6 6 9.4 14.1 9.4 22.6V400c0 8.8 7.2 16 16 16h64.5c8.5 0 16.6 3.4 22.6 9.4L244.7 471c6.2 6.2 16.4 6.2 22.6 0l45.6-45.6c6-6 14.1-9.4 22.6-9.4H400c8.8 0 16-7.2 16-16V335.5c0-8.5 3.4-16.6 9.4-22.6L471 267.3c6.2-6.2 6.2-16.4 0-22.6l-45.6-45.6c-6-6-9.4-14.1-9.4-22.6V112c0-8.8-7.2-16-16-16H335.5c-8.5 0-16.6-3.4-22.6-9.4L267.3 41c-6.2-6.2-16.4-6.2-22.6 0L199.1 86.6z"/></svg>
